; generated by PrusaSlicer 2.1.1+win64 on 2022-02-07 at 08:18:21 UTC

; 

; external perimeters extrusion width = 0.60mm
; perimeters extrusion width = 0.50mm
; infill extrusion width = 0.50mm
; solid infill extrusion width = 0.50mm
; top infill extrusion width = 0.45mm
; support material extrusion width = 0.38mm
; first layer extrusion width = 0.42mm

M73 P0 R184
M73 Q0 S186
M201 X1000 Y1000 Z200 E5000 ; sets maximum accelerations, mm/sec^2
M203 X200 Y200 Z12 E120 ; sets maximum feedrates, mm/sec
M204 P1250 R1250 T1250 ; sets acceleration (P, T) and retract acceleration (R), mm/sec^2
M205 X8.00 Y8.00 Z0.40 E4.50 ; sets the jerk limits, mm/sec
M205 S0 T0 ; sets the minimum extruding and travel feed rate, mm/sec
M107
M862.3 P "MK3S" ; printer model check
M862.1 P0.4 ; nozzle diameter check
M115 U3.10.0 ; tell printer latest fw version
G90 ; use absolute coordinates
M83 ; extruder relative mode
M104 S215 ; set extruder temp
M140 S60 ; set bed temp
M190 S60 ; wait for bed temp
M109 S215 ; wait for extruder temp
G28 W ; home all without mesh bed level
G80 ; mesh bed leveling
G1 Y-3.0 F1000.0 ; go outside print area
G92 E0.0
G1 X60.0 E9.0 F1000.0 ; intro line
M73 Q0 S186
M73 P0 R184
G1 X100.0 E12.5 F1000.0 ; intro line
G92 E0.0
M221 S95
G21 ; set units to millimeters
G90 ; use absolute coordinates
M83 ; use relative distances for extrusion
M900 K0.05 ; Filament gcode LA 1.5
M900 K30 ; Filament gcode LA 1.0
;BEFORE_LAYER_CHANGE
G92 E0.0
;0.2


G1 E-0.80000 F2100.00000
G1 Z0.600 F10800.000
;AFTER_LAYER_CHANGE
;0.2
G1 X77.916 Y60.518
G1 Z0.200
G1 E0.80000 F2100.00000
M204 S1000
G1 F1200
G1 X78.432 Y60.085 E0.02112
G1 X86.852 Y55.104 E0.30675
G1 X87.307 Y54.906 E0.01555
G1 X87.795 Y54.817 E0.01555
G1 X162.058 Y54.811 E2.32847
G1 X162.604 Y54.882 E0.01726
G1 X163.118 Y55.087 E0.01737
G1 X171.755 Y60.211 E0.31486
G1 X172.235 Y60.713 E0.02179
G1 X173.634 Y62.936 E0.08234
G1 X173.935 Y63.795 E0.02855
G1 X174.787 Y73.683 E0.31115
G1 X177.189 Y142.990 E2.17439
G1 X177.004 Y145.116 E0.06690
G1 X176.453 Y147.171 E0.06673
G1 X175.554 Y149.097 E0.06662
G1 X174.311 Y150.864 E0.06776
G1 X172.688 Y152.450 E0.07116
G1 X171.092 Y153.557 E0.06089
G1 X169.278 Y154.410 E0.06284
G1 X160.793 Y156.776 E0.27622
G1 X160.251 Y156.852 E0.01714
G1 X89.963 Y156.849 E2.20384
G1 X80.849 Y154.460 E0.29540
G1 X78.903 Y153.554 E0.06730
G1 X77.135 Y152.311 E0.06776
G1 X75.552 Y150.691 E0.07104
G1 X74.445 Y149.095 E0.06089
G1 X73.617 Y147.338 E0.06089
G1 X73.000 Y145.135 E0.07173
G1 X72.812 Y142.983 E0.06776
G1 X75.214 Y73.638 E2.17556
G1 X76.090 Y63.632 E0.31494
G1 X76.346 Y62.966 E0.02236
G1 X77.884 Y60.569 E0.08930
G1 F8640
G1 X78.432 Y60.085 E-0.16878
G1 X80.635 Y58.781 E-0.59122
G1 E-0.04000 F2100.00000
G1 Z0.800 F10800.000
G1 X110.783 Y81.649
G1 Z0.200
G1 E0.80000 F2100.00000
G1 F1200
G1 X110.783 Y93.735 E0.37898
G1 X111.537 Y93.502 E0.02475
G1 X111.537 Y81.818 E0.36633
G1 X112.292 Y81.818 E0.02365
G1 X112.292 Y93.231 E0.35783
G1 X113.046 Y92.880 E0.02607
G1 X113.046 Y79.503 E0.41945
G1 X113.800 Y79.503 E0.02365
G1 X113.800 Y92.481 E0.40693
G1 X114.554 Y92.001 E0.02804
G1 X114.554 Y79.503 E0.39187
G1 X114.804 Y79.503 E0.00783
G1 X114.804 Y77.187 E0.07260
G1 X115.308 Y77.187 E0.01581
G1 X115.308 Y91.433 E0.44667
G1 X116.062 Y90.794 E0.03099
G1 X116.062 Y77.187 E0.42665
G1 X116.817 Y77.187 E0.02365
G1 X116.817 Y89.978 E0.40104
G1 X117.218 Y89.534 E0.01875
G1 X117.571 Y89.019 E0.01958
G1 X117.571 Y77.187 E0.37098
G1 X118.325 Y77.187 E0.02365
G1 X118.325 Y87.823 E0.33350
G1 X118.870 Y86.746 E0.03786
G1 X119.079 Y86.142 E0.02002
G1 X119.079 Y77.861 E0.25967
G1 X119.402 Y78.791 E0.03087
G1 X119.726 Y80.380 E0.05087
G1 X119.833 Y81.980 E0.05026
G1 X119.833 Y83.944 E0.06160
G1 F8640
G1 X119.833 Y81.980 E-0.45366
G1 X119.745 Y80.656 E-0.30634
G1 E-0.04000 F2100.00000
G1 Z0.800 F10800.000
G1 X130.391 Y85.001
G1 Z0.200
G1 E0.80000 F2100.00000
G1 F1200
G1 X130.391 Y79.709 E0.16594
G1 X130.409 Y79.580 E0.00407
G1 X130.837 Y78.014 E0.05089
G1 X131.146 Y77.286 E0.02482
G1 X131.146 Y86.716 E0.29568
G1 X131.471 Y87.483 E0.02611
G1 X131.900 Y88.206 E0.02637
G1 X131.900 Y77.187 E0.34550
G1 X132.654 Y77.187 E0.02365
G1 X132.654 Y89.329 E0.38072
G1 X133.305 Y90.154 E0.03294
G1 X133.408 Y90.254 E0.00451
G1 X133.408 Y77.187 E0.40971
G1 X134.162 Y77.187 E0.02365
G1 X134.162 Y90.983 E0.43257
G1 X134.472 Y91.282 E0.01350
G1 X134.916 Y91.610 E0.01732
G1 X134.916 Y79.503 E0.37962
G1 X135.671 Y79.503 E0.02365
G1 X135.671 Y92.166 E0.39704
G1 X135.779 Y92.246 E0.00422
G1 X136.425 Y92.599 E0.02309
G1 X136.425 Y79.503 E0.41063
G1 X136.952 Y79.503 E0.01652
G1 X136.952 Y81.818 E0.07260
G1 X137.179 Y81.818 E0.00712
G1 X137.179 Y93.012 E0.35098
G1 X137.933 Y93.307 E0.02539
G1 X137.933 Y81.818 E0.36021
G1 X138.687 Y81.818 E0.02365
G1 X138.687 Y93.776 E0.37494
G1 F8640
G1 X138.687 Y90.485 E-0.76000
G1 E-0.04000 F2100.00000
G1 Z0.800 F10800.000
G1 X134.162 Y106.451
G1 Z0.200
G1 E0.80000 F2100.00000
G1 F1200
G1 X134.162 Y104.052 E0.07522
G1 X133.408 Y103.229 E0.03500
G1 X133.408 Y106.282 E0.09570
G1 X132.654 Y106.282 E0.02365
G1 X132.654 Y102.591 E0.11573
G1 X132.210 Y102.215 E0.01823
G1 X131.900 Y102.017 E0.01154
G1 X131.900 Y106.282 E0.13371
G1 X131.146 Y106.282 E0.02365
G1 X131.146 Y101.536 E0.14879
G1 X130.842 Y101.342 E0.01129
G1 X130.391 Y101.133 E0.01557
G1 X130.391 Y106.282 E0.16143
G1 X129.637 Y106.282 E0.02365
G1 X129.637 Y100.784 E0.17238
G1 X129.369 Y100.659 E0.00928
G1 X128.883 Y100.509 E0.01594
G1 X128.883 Y106.282 E0.18101
G1 X128.129 Y106.282 E0.02365
G1 X128.129 Y100.273 E0.18839
G1 X127.818 Y100.176 E0.01021
G1 X127.375 Y100.101 E0.01410
G1 X127.375 Y106.282 E0.19378
G1 X126.621 Y106.282 E0.02365
G1 X126.621 Y99.975 E0.19774
G1 X126.215 Y99.907 E0.01289
G1 X125.866 Y99.895 E0.01094
G1 X125.866 Y106.282 E0.20023
G1 X125.112 Y106.282 E0.02365
G1 X125.112 Y99.870 E0.20102
G1 X124.593 Y99.853 E0.01628
G1 X124.358 Y99.877 E0.00741
G1 X124.358 Y106.282 E0.20083
G1 X123.604 Y106.282 E0.02365
G1 X123.604 Y99.952 E0.19845
G1 X122.978 Y100.015 E0.01973
G1 X122.850 Y100.046 E0.00413
G1 X122.850 Y106.282 E0.19551
G1 X122.096 Y106.282 E0.02365
G1 X122.096 Y100.226 E0.18987
G1 X121.342 Y100.414 E0.02437
G1 X121.342 Y106.282 E0.18397
G1 X120.587 Y106.282 E0.02365
G1 X120.587 Y100.704 E0.17488
G1 X119.833 Y101.002 E0.02543
G1 X119.833 Y106.282 E0.16554
G1 X119.079 Y106.282 E0.02365
G1 X119.079 Y101.416 E0.15256
G1 X118.459 Y101.756 E0.02218
G1 X118.325 Y101.855 E0.00522
G1 X118.325 Y106.282 E0.13879
G1 X117.571 Y106.282 E0.02365
G1 X117.571 Y102.410 E0.12140
G1 X117.151 Y102.718 E0.01633
G1 X116.817 Y103.042 E0.01460
G1 X116.817 Y106.282 E0.10157
G1 X116.062 Y106.282 E0.02365
G1 X116.062 Y103.772 E0.07867
G1 X115.985 Y103.848 E0.00339
G1 X115.308 Y104.705 E0.03424
G1 X115.308 Y106.451 E0.05476
G1 F8640
G1 X115.308 Y104.705 E-0.40328
G1 X115.985 Y103.848 E-0.25214
G1 X116.062 Y103.772 E-0.02494
G1 X116.062 Y104.117 E-0.07964
G1 E-0.04000 F2100.00000
G1 Z0.800 F10800.000
G1 X113.189 Y106.033
G1 Z0.200
G1 E0.80000 F2100.00000
G1 F1200
G1 X114.090 Y104.512 E0.05542
G1 X115.185 Y103.125 E0.05542
G1 X116.455 Y101.895 E0.05544
G1 X117.879 Y100.848 E0.05541
G1 X119.429 Y99.997 E0.05545
G1 X121.078 Y99.363 E0.05540
G1 X122.798 Y98.952 E0.05545
G1 X124.558 Y98.776 E0.05543
G1 X126.323 Y98.834 E0.05537
G1 X128.069 Y99.128 E0.05552
G1 X129.756 Y99.653 E0.05541
G1 X130.960 Y100.211 E0.04160
G1 X131.360 Y100.397 E0.01384
G1 X132.850 Y101.347 E0.05540
G1 X134.198 Y102.489 E0.05539
G1 X135.384 Y103.799 E0.05541
G1 X136.386 Y105.258 E0.05550
G1 X137.182 Y106.836 E0.05541
G1 X137.762 Y108.505 E0.05542
G1 X138.115 Y110.237 E0.05541
G1 X138.233 Y112.002 E0.05546
G1 X138.115 Y113.765 E0.05540
G1 X137.762 Y115.498 E0.05546
G1 X137.182 Y117.166 E0.05537
G1 X136.385 Y118.744 E0.05542
G1 X135.384 Y120.202 E0.05545
G1 X134.198 Y121.513 E0.05545
G1 X132.850 Y122.653 E0.05534
G1 X131.360 Y123.605 E0.05542
G1 X129.756 Y124.350 E0.05547
G1 X128.068 Y124.873 E0.05539
G1 X126.323 Y125.167 E0.05551
G1 X124.558 Y125.226 E0.05538
G1 X122.799 Y125.050 E0.05542
G1 X121.078 Y124.641 E0.05544
G1 X119.429 Y124.005 E0.05542
G1 X117.879 Y123.155 E0.05543
G1 X116.455 Y122.107 E0.05542
G1 X115.185 Y120.877 E0.05543
G1 X114.090 Y119.490 E0.05542
G1 X113.189 Y117.969 E0.05543
G1 X112.498 Y116.341 E0.05545
G1 X112.032 Y114.637 E0.05540
G1 X111.797 Y112.884 E0.05544
G1 X111.797 Y111.118 E0.05540
G1 X112.032 Y109.365 E0.05544
G1 X112.498 Y107.659 E0.05545
G1 X113.166 Y106.088 E0.05352
G1 X113.513 Y106.236 F10800.000
G1 F1200
G1 X114.402 Y104.726 E0.05493
G1 X115.465 Y103.378 E0.05384
G1 X116.699 Y102.184 E0.05385
G1 X118.082 Y101.166 E0.05383
G1 X119.588 Y100.340 E0.05386
G1 X121.190 Y99.724 E0.05382
G1 X122.861 Y99.325 E0.05387
G1 X124.570 Y99.153 E0.05385
G1 X126.285 Y99.210 E0.05379
G1 X127.981 Y99.495 E0.05393
G1 X129.620 Y100.006 E0.05383
G1 X131.178 Y100.728 E0.05386
G1 X132.626 Y101.651 E0.05381
G1 X133.935 Y102.760 E0.05380
G1 X135.087 Y104.033 E0.05383
G1 X136.060 Y105.451 E0.05391
G1 X136.834 Y106.983 E0.05383
G1 X137.397 Y108.605 E0.05384
G1 X137.740 Y110.288 E0.05383
G1 X137.855 Y112.002 E0.05387
G1 X137.740 Y113.714 E0.05381
G1 X137.397 Y115.398 E0.05388
G1 X136.834 Y117.019 E0.05379
G1 X136.060 Y118.551 E0.05383
G1 X135.087 Y119.967 E0.05387
G1 X133.935 Y121.242 E0.05387
G1 X132.626 Y122.349 E0.05376
G1 X131.179 Y123.274 E0.05384
G1 X129.620 Y123.998 E0.05388
G1 X127.981 Y124.505 E0.05380
G1 X126.285 Y124.791 E0.05393
G1 X124.570 Y124.849 E0.05380
G1 X122.861 Y124.677 E0.05384
G1 X121.190 Y124.280 E0.05386
G1 X119.588 Y123.662 E0.05383
G1 X118.082 Y122.836 E0.05386
G1 X116.699 Y121.818 E0.05384
G1 X115.465 Y120.624 E0.05385
G1 X114.402 Y119.276 E0.05384
G1 X113.526 Y117.798 E0.05385
G1 X112.855 Y116.217 E0.05386
G1 X112.402 Y114.562 E0.05381
G1 X112.174 Y112.859 E0.05386
G1 X112.174 Y111.143 E0.05381
G1 X112.402 Y109.440 E0.05386
G1 X112.855 Y107.783 E0.05386
G1 X113.489 Y106.291 E0.05084
G1 X113.293 Y105.901 F10800.000
G1 F8640
G1 X114.402 Y104.726 E-0.41825
G1 X115.319 Y103.564 E-0.34175
G1 E-0.04000 F2100.00000
G1 Z0.800 F10800.000
G1 X110.747 Y94.873
G1 Z0.200
G1 E0.80000 F2100.00000
G1 F1200
G1 X109.003 Y95.167 E0.05544
G1 X107.238 Y95.226 E0.05538
G1 X105.479 Y95.050 E0.05543
G1 X103.758 Y94.639 E0.05545
G1 X102.108 Y94.003 E0.05546
G1 X100.559 Y93.154 E0.05537
G1 X99.135 Y92.106 E0.05544
G1 X97.865 Y90.878 E0.05539
G1 X96.768 Y89.489 E0.05548
G1 X95.869 Y87.969 E0.05539
G1 X95.178 Y86.341 E0.05543
G1 X94.710 Y84.636 E0.05543
G1 X94.477 Y82.885 E0.05541
G1 X94.477 Y81.118 E0.05539
G1 X94.710 Y79.366 E0.05543
G1 X95.178 Y77.661 E0.05543
G1 X95.869 Y76.032 E0.05548
G1 X96.769 Y74.512 E0.05537
G1 X97.865 Y73.124 E0.05546
G1 X99.135 Y71.897 E0.05538
G1 X100.203 Y71.108 E0.04163
G1 X100.559 Y70.846 E0.01385
G1 X102.108 Y69.997 E0.05538
G1 X103.758 Y69.363 E0.05544
G1 X105.478 Y68.952 E0.05545
G1 X107.238 Y68.776 E0.05544
G1 X109.003 Y68.835 E0.05538
G1 X110.747 Y69.129 E0.05544
G1 X112.434 Y69.652 E0.05538
M73 Q0 S185
G1 X114.039 Y70.395 E0.05547
G1 X115.529 Y71.347 E0.05546
G1 X116.878 Y72.489 E0.05539
M73 P0 R183
G1 X118.064 Y73.800 E0.05544
G1 X119.064 Y75.256 E0.05539
G1 X119.862 Y76.836 E0.05548
G1 X120.441 Y78.505 E0.05542
G1 X120.795 Y80.237 E0.05540
G1 X120.913 Y82.002 E0.05548
G1 X120.795 Y83.765 E0.05540
G1 X120.441 Y85.497 E0.05541
G1 X119.862 Y87.166 E0.05542
G1 X119.064 Y88.746 E0.05548
G1 X118.064 Y90.202 E0.05538
G1 X116.878 Y91.513 E0.05544
G1 X115.529 Y92.655 E0.05541
G1 X114.039 Y93.605 E0.05542
G1 X112.434 Y94.350 E0.05547
G1 X110.804 Y94.855 E0.05350
G1 X110.692 Y94.495 F10800.000
G1 F1200
G1 X108.965 Y94.791 E0.05495
G1 X107.250 Y94.849 E0.05380
G1 X105.541 Y94.677 E0.05385
G1 X103.870 Y94.278 E0.05387
G1 X102.267 Y93.660 E0.05388
G1 X100.762 Y92.836 E0.05379
G1 X99.379 Y91.817 E0.05386
G1 X98.146 Y90.624 E0.05381
G1 X97.080 Y89.275 E0.05389
G1 X96.206 Y87.798 E0.05381
G1 X95.535 Y86.217 E0.05386
G1 X95.081 Y84.561 E0.05384
G1 X94.854 Y82.860 E0.05383
G1 X94.854 Y81.143 E0.05382
G1 X95.081 Y79.441 E0.05384
G1 X95.535 Y77.785 E0.05384
G1 X96.206 Y76.202 E0.05390
G1 X97.080 Y74.726 E0.05378
G1 X98.146 Y73.378 E0.05388
G1 X99.379 Y72.185 E0.05380
G1 X100.762 Y71.165 E0.05389
G1 X102.267 Y70.340 E0.05379
G1 X103.870 Y69.724 E0.05386
G1 X105.541 Y69.325 E0.05387
G1 X107.250 Y69.153 E0.05385
G1 X108.965 Y69.211 E0.05380
G1 X110.659 Y69.497 E0.05386
G1 X112.298 Y70.004 E0.05380
G1 X113.857 Y70.727 E0.05388
G1 X115.305 Y71.652 E0.05387
G1 X116.615 Y72.760 E0.05381
G1 X117.767 Y74.035 E0.05387
G1 X118.739 Y75.449 E0.05380
G1 X119.514 Y76.983 E0.05389
G1 X120.077 Y78.605 E0.05384
G1 X120.420 Y80.287 E0.05382
G1 X120.535 Y82.002 E0.05389
G1 X120.420 Y83.714 E0.05381
G1 X120.077 Y85.397 E0.05383
G1 X119.514 Y87.019 E0.05384
G1 X118.739 Y88.553 E0.05389
G1 X117.767 Y89.967 E0.05380
G1 X116.615 Y91.242 E0.05386
G1 X115.305 Y92.351 E0.05381
G1 X113.857 Y93.274 E0.05384
G1 X112.298 Y93.998 E0.05389
G1 X110.750 Y94.477 E0.05083
G1 X110.579 Y94.879 F10800.000
G1 F8640
G1 X108.965 Y94.791 E-0.41840
G1 X107.486 Y94.841 E-0.34160
G1 E-0.04000 F2100.00000
G1 Z0.800 F10800.000
G1 X129.836 Y86.382
G1 Z0.200
G1 E0.80000 F2100.00000
G1 F1200
G1 X129.352 Y84.637 E0.05677
G1 X129.116 Y82.885 E0.05541
G1 X129.116 Y81.118 E0.05542
G1 X129.352 Y79.366 E0.05543
G1 X129.818 Y77.661 E0.05540
G1 X130.509 Y76.032 E0.05549
G1 X131.410 Y74.512 E0.05539
G1 X132.505 Y73.125 E0.05542
G1 X133.776 Y71.897 E0.05540
G1 X135.199 Y70.846 E0.05546
G1 X136.749 Y69.997 E0.05543
G1 X138.400 Y69.363 E0.05544
G1 X140.119 Y68.952 E0.05541
G1 X141.878 Y68.776 E0.05544
G1 X143.645 Y68.835 E0.05543
G1 X145.389 Y69.129 E0.05544
G1 X147.076 Y69.652 E0.05538
G1 X148.680 Y70.396 E0.05546
G1 X150.170 Y71.347 E0.05542
G1 X151.520 Y72.489 E0.05542
G1 X152.705 Y73.800 E0.05544
G1 X153.706 Y75.257 E0.05540
G1 X154.502 Y76.836 E0.05544
G1 X155.083 Y78.505 E0.05543
G1 X155.435 Y80.237 E0.05540
G1 X155.553 Y82.002 E0.05547
G1 X155.435 Y83.765 E0.05539
G1 X155.083 Y85.497 E0.05542
G1 X154.502 Y87.166 E0.05543
G1 X153.706 Y88.745 E0.05544
G1 X152.705 Y90.202 E0.05540
G1 X151.520 Y91.513 E0.05544
G1 X150.170 Y92.655 E0.05543
G1 X148.680 Y93.605 E0.05539
G1 X147.076 Y94.350 E0.05546
G1 X145.389 Y94.873 E0.05539
G1 X143.645 Y95.167 E0.05544
G1 X141.878 Y95.226 E0.05543
G1 X140.119 Y95.050 E0.05543
G1 X138.400 Y94.639 E0.05542
G1 X136.749 Y94.003 E0.05546
G1 X135.199 Y93.154 E0.05542
G1 X133.776 Y92.106 E0.05543
G1 X132.505 Y90.877 E0.05541
G1 X131.410 Y89.489 E0.05544
G1 X130.509 Y87.969 E0.05541
G1 X129.859 Y86.437 E0.05218
G1 X130.206 Y86.290 F10800.000
G1 F1200
G1 X129.723 Y84.561 E0.05627
G1 X129.494 Y82.860 E0.05383
G1 X129.494 Y81.143 E0.05383
G1 X129.723 Y79.441 E0.05385
G1 X130.175 Y77.785 E0.05382
G1 X130.846 Y76.202 E0.05390
G1 X131.722 Y74.726 E0.05381
G1 X132.786 Y73.378 E0.05384
G1 X134.020 Y72.185 E0.05382
G1 X135.402 Y71.165 E0.05388
G1 X136.908 Y70.340 E0.05384
G1 X138.512 Y69.724 E0.05386
G1 X140.182 Y69.325 E0.05383
G1 X141.891 Y69.153 E0.05385
G1 X143.607 Y69.211 E0.05385
G1 X145.301 Y69.497 E0.05386
G1 X146.940 Y70.004 E0.05380
G1 X148.499 Y70.727 E0.05387
G1 X149.946 Y71.652 E0.05384
G1 X151.257 Y72.760 E0.05384
G1 X152.409 Y74.035 E0.05386
G1 X153.381 Y75.449 E0.05381
G1 X154.154 Y76.983 E0.05386
G1 X154.719 Y78.605 E0.05386
G1 X155.061 Y80.287 E0.05381
G1 X155.175 Y82.002 E0.05388
G1 X155.061 Y83.714 E0.05381
G1 X154.719 Y85.397 E0.05383
G1 X154.154 Y87.019 E0.05386
G1 X153.381 Y88.553 E0.05386
G1 X152.409 Y89.967 E0.05381
G1 X151.257 Y91.242 E0.05386
G1 X149.945 Y92.350 E0.05385
G1 X148.499 Y93.274 E0.05382
G1 X146.940 Y93.998 E0.05388
G1 X145.301 Y94.505 E0.05380
G1 X143.607 Y94.791 E0.05386
G1 X141.891 Y94.849 E0.05385
G1 X140.182 Y94.677 E0.05385
G1 X138.512 Y94.278 E0.05384
G1 X136.908 Y93.660 E0.05388
G1 X135.402 Y92.836 E0.05383
G1 X134.020 Y91.817 E0.05385
G1 X132.786 Y90.624 E0.05382
G1 X131.722 Y89.275 E0.05386
G1 X130.846 Y87.798 E0.05383
G1 X130.230 Y86.345 E0.04951
G1 X129.813 Y86.216 F10800.000
G1 F8640
G1 X129.723 Y84.561 E-0.42811
G1 X129.531 Y83.137 E-0.33189
G1 E-0.04000 F2100.00000
G1 Z0.800 F10800.000
